!!!!SEGMENT: pl-wnifc--13846--091_anonim--piesni-polskie-i-ruskie-ludu-galicyjskiego-91-dalibog-ze-powiem-mamie.krn
!!!kernsource:
!!!cenid: 18xx:3313
!!!COM: Anonim
!!!COM-rismID:
!!!CDT:
!!!CNT:
!!!GTL: Pieśni polskie i ruskie ludu galicyjskiego
!!!OTL: 91. Dalibóg że powiem mamie
!!!PDT: 1833
!!!AGN:
!!!SMS-siglum: PL-Wnifc
!!!SMS-shelfmark: 13846
!!!SMS-shelfwork: 091 G
!!!NIFC-rismSourceID: 1001039016
!!!NIFC-islandoraID:
!!!URL-pdf-islandora:
!!!URL-scan:
!!!ONB-nifc:
!!!OMD: Allegretto
!!!AIN: 1 piano 1 vox
!!!key: A
**kern	**kern	**dynam	**kern	**text
*part2	*part2	*part2	*part1	*part1
*staff3	*staff2	*	*staff1	*staff1
*I"FORTEPIAN.	*I"FORTEPIAN.	*	*I"GŁOS.	*
*Ipiano	*Ipiano	*	*Ivox	*
*ICklav	*ICklav	*	*ICvox	*
*IGacmp	*IGacmp	*	*IGsolo	*
*clefF4	*clefG2	*	*clefG2	*
*k[f#c#g#]	*k[f#c#g#]	*	*k[f#c#g#]	*
*A:	*A:	*	*A:	*
*M3/8	*M3/8	*	*M3/8	*
=1-	=1-	=1-	=1-	=1-
!	!LO:TX:a:t=E.67.:rj	!	!LO:TX:a:B:t=Mazur	!
!LO:TX:t=P:problem=mixed beam	!LO:TX:t=P:problem=mixed beam	!	!	!
8EE/L	16ee\LL	.	16ee\	Da-
.	16e/JJ	.	16e/	-li-
8B\ 8E\	8g#/L	.	8g#/	-bóg
8d\J 8E\	8b/J	.	8b/	że
=2	=2	=2	=2	=2
!	!LO:TX:t=P:problem=mixed beam	!	!	!
8AA\L	16cc#\LL	.	16cc#\	po-
.	16e/JJ	.	16e/	-wiém
8c#\ 8A\ 8E\	8a\L	.	8a/	ma-
8c#\J 8A\ 8E\	8cc#\J	.	8cc#\	-mie
!!LO:LB:g=original
=3	=3	=3	=3	=3
!LO:TX:t=P:problem=mixed beam	!	!	!	!
8EE/L	16b/LL	.	16b\	on
.	16e/JJ	.	16e/	coś
8d\ 8B\ 8E\	8f#/L	.	8f#/	złe-
8d\J 8B\ 8E\	8g#/J	.	8g#/	-go
=4	=4	=4	=4	=4
!LO:TX:t=P:problem=mixed beam	!	!	!	!
8AA/L	16a\LL	.	16a\	zro-
.	16cc#\JJ	.	16cc#\	-bić
8c#\ 8A\	8ff#\L	.	8ff#\	go-
8c#\J 8A\	8ee\J	.	8ee\	-tów
=5	=5	=5	=5	=5
!LO:TX:t=P:problem=mixed beam	!LO:TX:t=P:problem=mixed beam	!	!	!
8EE/L	16ee\LL	.	16ee\	wzdy-
.	16e/JJ	.	16e/	-cha
8B\ 8E\	8g#/L	.	8g#/	pła-
8d\J 8E\	8b/J	.	8b/	-cze,
!!LO:LB:g=original
=6	=6	=6	=6	=6
!	!LO:TX:t=P:problem=mixed beam	!	!	!
8AA/L	16cc#\LL	.	16cc#\	rę-
.	16e/JJ	.	16e/	-ce
8c#\ 8A\ 8E\	8a/L	.	8a\	ła-
8c#\J 8A\ 8E\	8cc#/J	.	8cc#\	-mie,
=7	=7	=7	=7	=7
!	!LO:TX:t=P:problem=mixed beam	!	!	!
8E\L	16b\LL	.	16b\	klnie
.	16e/JJ	.	16e/	po-
8d\ 8B\ 8E\	8f#/L	.	8f#/	-tę-
8d\J 8B\ 8E\	8g#/J	.	8g#/	-gę
=8	=8	=8	=8	=8
!LO:TX:t=P:problem=mixed beam	!	!	!	!
8AA/L	16a\LL	.	16a\	mych
.	16cc#\JJ	.	16cc#\	przy-
8c#\ 8A\	8a/L	.	8a/	-mio-
8c#\J 8A\	8a/J	.	8a/	-tów
!!LO:LB:g=original
=9|!	=9|!	=9|!	=9|!	=9|!
!LO:TX:t=P:problem=mixed beam	!	!	!	!
8FF#/L	8.ff#\L 8.f#\	.	8.f#/	Na-
8e\ 8c#\ 8F#\	.	.	.	.
.	16gg#\L 16g#\	.	16g#/	-zwał
8e\J 8c#\ 8F#\	16aa#X\ 16a#X\	.	16a#X/	ser-
.	16ff#\JJ 16f#\	.	16f#/	-ce
=10	=10	=10	=10	=10
8D/	8.bb\L 8.b\	.	8.b\	mo-
8d\L 8B\ 8F#\	.	.	.	.
.	16ccc#\L 16cc#\	.	16cc#\	-je
8d\J 8B\ 8F#\	16ddd\ 16dd\	.	16dd\	lo-
.	16eee\JJ 16ee\	.	16ee\	-dem
!!LO:PB:g=original
=11	=11	=11	=11	=11
8FF#/L	8.fff#\L 8.ff#\	.	8.ff#\	wzrok
8F#/ 8E/ 8C#/	.	.	.	.
.	16ff#\L 16f#\	.	16f#/	szty-
8F#/J 8E/ 8C#/	16gg#\ 16g#\	.	16g#/	-le-
.	16aa#X\JJ 16a#X\	.	16a#X/	-tem
=12	=12	=12	=12	=12
8F#\L 8D\ 8BB\	16bb\LL 16b\	.	16b\	je-
.	16ccc#\JJ 16cc#\	.	16cc#\	-szcze
8B\ 8F#\ 8BB\	8ddd\L 8dd\	.	8dd\	kła-
8A\J 8F#\ 8BB\	8ddd#X\J 8dd#X\	.	8dd#X\	-mie,
!!LO:LB:g=original
=13	=13	=13	=13	=13
8G#\L 8E\	16eee\LL 16ee\	.	16ee\	że
.	16ee\JJ	.	16e/	ja
8B\ 8E\	8gg#\L	.	8g#/	je-
8G#\J 8E\	16bb\L	.	(>16b\LL	-go
.	16ddd\JJ	.	16dd\JJ)	.
=14	=14	=14	=14	=14
*^	*	*	*	*
!LO:N:vis=8	!	!	!	!	!
4.AA/	8AAL\	16ccc#\LL 16cc#\	.	16cc#\	też
.	.	16ee\JJ 16e\	.	16e/	po-
.	8c#\ 8A\ 8E\	8aa\L 8a\	.	8a/	-wo-
.	8c#\J 8A\ 8E\	8ccc#\J 8cc#\	.	8cc#/	-dem,
!!LO:LB:g=original
=15	=15	=15	=15	=15	=15
!LO:N:vis=8.	!	!	!	!	!
4.E/	8E\L	16bb\LL 16b\	.	16b\	da-
.	.	16ee\JJ 16e\	.	16e/	-li-
.	8d\ 8B\ 8E\	8ff#\L 8f#\	.	8f#/	-bóg
.	8d\J 8B\ 8E\	8gg#\J 8g#\	.	8g#/	że
=16	=16	=16	=16	=16	=16
!LO:TX:t=P:problem=mixed beam	!	!	!	!	!
8AA/L	4.AA\	16aa\LL 16a\	.	16a/	po-
.	.	16ccc#\JJ 16cc#\	.	16cc#\	-wiém
8c#\ 8A\ 8E\	.	8.fff#\L 8.ff#\	.	8.ff#\^	ma-
8c#\J 8A\ 8E\	.	.	.	.	.
.	.	16eee\Jk 16ee\	.	16ee\	-mie!
=17	=17	=17	=17	=17	=17
*	*	*	*^	*	*
!LO:TX:t=P:problem=mixed beam	!	!	!LO:DY:rj	!LO:DY:rj:b=2	!	!
8EE/L	4.EE\	16eee\LL 16ee\	f	f	16ee\	że
.	.	16ee\JJ	.	.	16e/	ja
!LO:TX:t=P:problem=akord zamazany	!	!	!	!	!	!
8e\K 8G#\ 8E\	.	8gg#\L	.	.	8g#/	je-
8e\J 8G#\ 8E\	.	8bb\J	.	.	8b/	-go
*	*	*	*v	*v	*	*
!!LO:LB:g=original
=18	=18	=18	=18	=18	=18
!LO:TX:t=P:problem=mixed beam	!	!	!	!	!
8AA/L	4.AA\	16ccc#\LL 16cc#\	.	16cc#\	tez
.	.	16ee\JJ 16e\	.	16e/	po-
8c#\ 8A\ 8E\	.	8aa\L 8a\	.	8a/	-wo-
8c#\J 8A\ 8E\	.	8ccc#\J 8cc#\	.	8cc#\	-dem,
=19	=19	=19	=19	=19	=19
!LO:TX:t=P:problem=mixed beam	!	!	!	!	!
8E/L	4.E\	16bb\LL 16b\	.	16b\	da-
.	.	16ee\JJ 16e\	.	16e/	-li-
8d\ 8B\ 8E\	.	8ff#\L 8f#\	.	8f#/	-bóg
8d\J 8B\ 8E\	.	8gg#\J 8g#\	.	8g#/	że
=20	=20	=20	=20	=20	=20
8AA/L	4.AA\	16aa\LL 16a\	.	16a\	po-
.	.	16ccc#\JJ	.	16cc#\	-wiém
8c#/ 8A/ 8E/	.	8aa\L	.	8a/	ma-
8c#/J 8A/ 8E/	.	8aa\J	.	8a/	-mie.
*v	*v	*	*	*	*
==	==	==	==	==
*-	*-	*-	*-	*-
!!!system-decoration: <s1>{(s2,s3)}
!!!RDF**kern: > = above
!!!RDF**kern: < = below
!!!ENC: Andrzej Kubiczek
!!!END: 2021-11-11
